X:11241
T:Mother's Delight
R:reel
S:(Martin O'Connor)
H:
N:
D:
Z:Adrian Scahill
M:4/4
L:1/8
K:C
F3D G3E|F3A GECE|DddA defe|(3ded cd ABcB|\
Addc A3B|cAGE CDEC|Dddc dced|cAGE D3e:||
FAdA FDD2|EGcG ECC2|FAdA FDD2|ECA,B, CEGE|\
FAdA FDD2|EGcG ECDE|F2FE FEDC|A,FEF D3E:||
